svg/emoji_u1f9d1_1f3fc_200d_1f9b1.svg

<?xml version="1.0" encoding="utf-8"?>
<!-- Generator: Adobe Illustrator 24.0.3, SVG Export Plug-In . SVG Version: 6.00 Build 0)  -->
<svg version="1.1" id="Layer_1" xmlns="http://www.w3.org/2000/svg" xmlns:xlink="http://www.w3.org/1999/xlink" x="0" y="0"
	 viewBox="0 0 128 128" style="enable-background:new 0 0 128 128;" xml:space="preserve">
<path id="hair_1_" style="fill:#AB872F;" d="M109.01,37.96c-0.35-3.54-2.76-4.8-2.76-4.8c2.41-4.52,1.35-7.88-3.19-10.08
	c0.53-5.27-1.78-7.98-6.52-8.58c-1.17-5.06-4.24-7.01-8.95-5.73c-2.57-4.33-6.05-5.26-10.36-2.8c-3.72-4.21-8.96-5.34-13.25-0.67v0
	c0,0,0,0,0,0c0,0,0,0,0,0v0c-4.29-4.68-9.53-3.54-13.25,0.67c-4.31-2.46-7.79-1.53-10.36,2.8c-4.71-1.28-7.78,0.66-8.95,5.73
	c-4.74,0.6-7.05,3.31-6.52,8.58c-4.54,2.2-5.61,5.57-3.19,10.09c0,0-2.4,1.26-2.76,4.8c-0.34,3.44,1.91,5.92,1.91,5.92
	c-2.88,3.54-1.94,7.25,1.56,9.82c0,0-2.31,7.39,5.8,9.43c0,0,0.06,6.38,5.76,7.11v-3.01c-2.05-0.37-2.78-2.33-2.79-4.27
	c0.31,0.06,0.62,0.11,0.96,0.16c0.21-0.39,57.02-1.29,64.52-1.46c0.35,2.27-0.19,5.12-2.7,5.58v3.01c5.71-0.74,5.76-7.11,5.76-7.11
	c8.11-2.04,5.8-9.43,5.8-9.43c3.5-2.57,4.44-6.28,1.56-9.82C107.11,43.88,109.36,41.4,109.01,37.96z"/>
<g id="shirt_3_">
	<g id="shirt">
		
			<linearGradient id="SVGID_1_" gradientUnits="userSpaceOnUse" x1="64" y1="35.7586" x2="64" y2="7.9996" gradientTransform="matrix(1 0 0 -1 0 130)">
			<stop  offset="0" style="stop-color:#F78C1F"/>
			<stop  offset="1" style="stop-color:#ED6D23"/>
		</linearGradient>
		<path style="fill:url(#SVGID_1_);" d="M114.39,119.89v4.07H13.61v-4.07c0-12.39,12.12-19.81,27.92-23.2
			c7.01-1.52,14.75-2.23,22.47-2.24h0.12c7.66,0,15.31,0.79,22.24,2.37C102.25,100.42,114.39,108.14,114.39,119.89z"/>
	</g>
</g>
<path id="neck_2_" style="fill:#C48E6A;" d="M72.89,90.06H55.1v9.98c0,4.51,3.62,8.17,8.09,8.17h1.62c4.46,0,8.09-3.66,8.09-8.17
	L72.89,90.06L72.89,90.06z"/>
<g id="face_3_">
	<path id="ears" style="fill:#C48E6A;" d="M36.67,72.24c-5.36,0-9.71-4.67-9.71-10.41s4.36-10.41,9.71-10.41h54.65
		c5.36,0,9.71,4.67,9.71,10.41s-4.36,10.41-9.71,10.41H36.67z"/>
	<g id="head_1_">
		<path id="head" style="fill:#E0BB95;" d="M64,10.34c-21.36,0-33.52,18.61-33.52,45.4c0,26.64,16.61,39.81,33.52,39.81
			s33.52-13.17,33.52-39.81C97.52,28.95,85.36,10.34,64,10.34z"/>
	</g>
	<g id="eyebrows_3_">
		<path style="fill:#AB872F;" d="M54.6,49.8c-0.93-1.23-3.07-3.01-7.23-3.01s-6.31,1.79-7.23,3.01c-0.41,0.54-0.31,1.17-0.02,1.55
			c0.26,0.35,1.04,0.68,1.9,0.39s2.54-1.16,5.35-1.18c2.81,0.02,4.49,0.89,5.35,1.18s1.64-0.03,1.9-0.39
			C54.9,50.97,55.01,50.34,54.6,49.8z"/>
		<path style="fill:#AB872F;" d="M87.86,49.8c-0.93-1.23-3.07-3.01-7.23-3.01s-6.31,1.79-7.23,3.01c-0.41,0.54-0.31,1.17-0.02,1.55
			c0.26,0.35,1.04,0.68,1.9,0.39s2.54-1.16,5.35-1.18c2.81,0.02,4.49,0.89,5.35,1.18s1.64-0.03,1.9-0.39
			C88.17,50.97,88.27,50.34,87.86,49.8z"/>
	</g>
	<g id="eyes_3_">
		<ellipse style="fill:#5D4037;" cx="47.37" cy="58.8" rx="4.93" ry="5.1"/>
		<ellipse style="fill:#5D4037;" cx="80.63" cy="58.8" rx="4.93" ry="5.1"/>
	</g>
	<path id="nose_3_" style="fill:#C48E6A;" d="M67.85,68.04c-0.11-0.04-0.21-0.07-0.32-0.08h-7.07c-0.11,0.01-0.22,0.04-0.32,0.08
		c-0.64,0.26-0.99,0.92-0.69,1.63s1.71,2.69,4.55,2.69c2.84,0,4.25-1.99,4.55-2.69C68.85,68.96,68.49,68.3,67.85,68.04z"/>
	<path id="mouth_3_" style="fill:#6D4C41;" d="M72.42,76.13c-3.19,1.89-13.63,1.89-16.81,0c-1.83-1.09-3.7,0.58-2.94,2.24
		c0.75,1.63,6.45,5.42,11.37,5.42S74.58,80,75.33,78.37C76.09,76.7,74.24,75.04,72.42,76.13z"/>
</g>
<path id="hair" style="fill:#AB872F;" d="M97.11,62.83c0,0,2.59-6.19,4.24-11.74c1.07-3.62,1.57-7.71,1.46-7.81
	c4.53-3.23,4.08-6.69-1.14-8.87c3.82-4.4,3.58-7.74-2.18-8.94c1.59-5.86-0.33-8.69-6.1-7.5c0.34-6.34-2.35-8.03-7.71-5.14
	c0,0-0.15-4.12-2.83-5.09c-2.69-0.97-6.42,2.13-6.42,2.13C72.63,4.2,68.32,4.29,64,9.74v0c0,0,0,0,0,0c0,0,0,0,0,0V9.73
	c-4.32-5.44-8.63-5.53-12.42,0.14c0,0-3.73-3.1-6.42-2.13c-2.69,0.97-2.83,5.09-2.83,5.09c-5.37-2.89-8.05-1.2-7.71,5.14
	c-5.77-1.19-7.69,1.64-6.1,7.5c-5.75,1.2-6,4.54-2.18,8.94c-5.23,2.18-4.89,5.3-0.37,8.47c2.09,1.47,1.81,5.64,2.57,8.97
	c1.94,8.48,2.66,10.57,2.66,10.57s2.59-2.72,2.97-4.46c0.38-1.75,0.89-4.51-0.17-5.96c3.49-2.68,2.18-7.24,2.18-7.24
	s3.1-0.63,4.85-3.46c0.78-1.26,1.22-1.91,2.56-1.32c1.05,0.47,2.13,0.76,3.29,0.76c2.68,0,5.04-1.4,6.42-3.52
	c0.96,0.55,2.07,0.87,3.25,0.87c2.97,0,5.48-1.97,6.37-4.7c1.23,1.5,3.07,2.45,5.14,2.45c0.87,0,1.69-0.18,2.46-0.49
	c0,0,0.81,4.66,7.06,4.36c4.59-0.21,6.05-3.02,6.05-3.02s1.18,2.42,3.3,3.16s3.79,0.41,3.79,0.41s-1.13,5.66,4.38,8.8
	c0,0-1.5,3.56-0.68,7.18C95.03,59.04,97.11,62.83,97.11,62.83z"/>
<radialGradient id="hairHighlights_1_" cx="63.5818" cy="88.6308" r="48.011" gradientTransform="matrix(1 0 0 -0.8794 0 119.4472)" gradientUnits="userSpaceOnUse">
	<stop  offset="0.7974" style="stop-color:#BFA055;stop-opacity:0"/>
	<stop  offset="0.984" style="stop-color:#BFA055"/>
</radialGradient>
<path id="hairHighlights" style="fill:url(#hairHighlights_1_);" d="M107.11,43.88c2.88,3.54,1.94,7.25-1.56,9.82
	c0,0,2.06,6.6-4.56,9.05c0.03-0.3,0.04-0.62,0.04-0.93c0-3.23-1.38-6.12-3.54-8.03C96.92,28.05,84.84,10.34,64,10.34
	S31.08,28.05,30.51,53.78c-2.17,1.91-3.55,4.81-3.55,8.04c0,0.31,0.01,0.63,0.04,0.93c-6.64-2.44-4.57-9.05-4.57-9.05
	c-3.51-2.57-4.44-6.28-1.56-9.82c0,0-2.25-2.48-1.91-5.92c0.35-3.54,2.75-4.8,2.75-4.8c-2.41-4.52-1.34-7.88,3.2-10.09
	c-0.53-5.27,1.77-7.97,6.52-8.58c1.17-5.06,4.24-7.01,8.95-5.73c2.57-4.33,6.05-5.25,10.36-2.8c3.72-4.2,8.95-5.34,13.25-0.67
	c4.3-4.67,9.53-3.53,13.25,0.67c4.31-2.45,7.78-1.53,10.36,2.8c4.71-1.28,7.78,0.67,8.95,5.73c4.74,0.61,7.05,3.31,6.52,8.58
	c4.54,2.21,5.6,5.57,3.19,10.09c0,0,2.41,1.26,2.76,4.8C109.36,41.4,107.11,43.88,107.11,43.88z"/>
</svg>

<?xml version="1.0" encoding="UTF-8" standalone="no"?>
<!DOCTYPE svg PUBLIC "-//W3C//DTD SVG 1.1//EN" "http://www.w3.org/Graphics/SVG/1.1/DTD/svg11.dtd">
<svg width="100%" height="100%" viewBox="0 0 128 128" version="1.1" xmlns="http://www.w3.org/2000/svg" xmlns:xlink="http://www.w3.org/1999/xlink" xml:space="preserve" xmlns:serif="http://www.serif.com/" style="fill-rule:evenodd;clip-rule:evenodd;stroke-linejoin:round;stroke-miterlimit:2;">
    <g id="hair_1_" transform="matrix(1.26804,0,0,1.26804,-17.1494,-2.14596)">
        <path d="M109.01,37.96C108.66,34.42 106.25,33.16 106.25,33.16C108.66,28.64 107.6,25.28 103.06,23.08C103.59,17.81 101.28,15.1 96.54,14.5C95.37,9.44 92.3,7.49 87.59,8.77C85.02,4.44 81.54,3.51 77.23,5.97C73.51,1.76 68.27,0.63 63.98,5.3C59.69,0.62 54.45,1.76 50.73,5.97C46.42,3.51 42.94,4.44 40.37,8.77C35.66,7.49 32.59,9.43 31.42,14.5C26.68,15.1 24.37,17.81 24.9,23.08C20.36,25.28 19.29,28.65 21.71,33.17C21.71,33.17 19.31,34.43 18.95,37.97C18.61,41.41 20.86,43.89 20.86,43.89C17.98,47.43 18.92,51.14 22.42,53.71C22.42,53.71 20.11,61.1 28.22,63.14C28.22,63.14 28.28,69.52 33.98,70.25L33.98,67.24C31.93,66.87 31.2,64.91 31.19,62.97C31.5,63.03 31.81,63.08 32.15,63.13C32.36,62.74 89.17,61.84 96.67,61.67C97.02,63.94 96.48,66.79 93.97,67.25L93.97,70.26C99.68,69.52 99.73,63.15 99.73,63.15C107.84,61.11 105.53,53.72 105.53,53.72C109.03,51.15 109.97,47.44 107.09,43.9C107.11,43.88 109.36,41.4 109.01,37.96Z" style="fill:rgb(84,57,48);fill-rule:nonzero;"/>
    </g>
    <path d="M106.633,66.04C106.729,68.56 106.779,71.134 106.779,73.77C106.779,78.27 106.429,82.362 105.803,86.105C110.596,85.339 114.779,82.265 114.779,75.881C114.779,67.401 106.91,66.039 106.91,66.039L106.633,66.039L106.633,66.04ZM21.09,66.04C21.09,66.04 13.22,67.4 13.22,75.88C13.22,82.266 17.405,85.341 22.2,86.107C21.57,82.362 21.22,78.269 21.22,73.77C21.22,71.134 21.271,68.56 21.367,66.04L21.09,66.04Z" style="fill:#c48e6a;fill-rule:nonzero;"/>
    <path d="M64,10.55C30.09,10.55 21.22,36.84 21.22,73.77C21.22,112.06 45.83,121.96 64,121.96C81.9,121.96 106.78,112.34 106.78,73.77C106.78,36.83 97.91,10.55 64,10.55Z" style="fill:#e0bb95;fill-rule:nonzero;"/>
    <path d="M49.91,77.19C49.91,81 47.36,84.09 44.2,84.09C41.04,84.09 38.47,81 38.47,77.19C38.47,73.37 41.04,70.28 44.2,70.28C47.36,70.28 49.91,73.37 49.91,77.19M78.08,77.19C78.08,81 80.64,84.09 83.8,84.09C86.95,84.09 89.52,81 89.52,77.19C89.52,73.37 86.95,70.28 83.8,70.28C80.64,70.28 78.08,73.37 78.08,77.19" style="fill:rgb(68,68,68);fill-rule:nonzero;"/>
    <path d="M76.38,100.52L51.62,100.52C50.2,100.52 49.59,101.47 50.53,102.9C51.84,104.9 56.72,108.75 64,108.75C71.28,108.75 76.16,104.9 77.47,102.9C78.41,101.47 77.8,100.52 76.38,100.52Z" style="fill:rgb(81,63,53);fill-rule:nonzero;"/>
    <path d="M69.98,89.99C67.87,90.59 65.69,90.88 64,90.88C62.31,90.88 60.13,90.59 58.02,89.99C57.12,89.73 56.77,90.59 57.09,91.16C57.76,92.34 60.45,94.71 64,94.71C67.55,94.71 70.24,92.34 70.91,91.16C71.24,90.59 70.88,89.74 69.98,89.99Z" style="fill:#c48e6a;fill-rule:nonzero;"/>
    <g id="hair" transform="matrix(1.26804,0,0,1.26804,-17.1494,-2.14596)">
        <path d="M97.669,62.83C97.669,62.83 99.7,56.64 101.35,51.09C102.42,47.47 102.92,43.38 102.81,43.28C107.34,40.05 106.89,36.59 101.67,34.41C105.49,30.01 105.25,26.67 99.49,25.47C101.08,19.61 99.16,16.78 93.39,17.97C93.73,11.63 91.04,9.94 85.68,12.83C85.68,12.83 85.53,8.71 82.85,7.74C80.16,6.77 76.43,9.87 76.43,9.87C72.63,4.2 68.32,4.29 64,9.74L64,9.73C59.68,4.29 55.37,4.2 51.58,9.87C51.58,9.87 47.85,6.77 45.16,7.74C42.47,8.71 42.33,12.83 42.33,12.83C36.96,9.94 34.28,11.63 34.62,17.97C28.85,16.78 26.93,19.61 28.52,25.47C22.77,26.67 22.52,30.01 26.34,34.41C21.11,36.59 21.45,39.71 25.97,42.88C28.06,44.35 27.78,48.52 28.54,51.85C30.48,60.33 30.306,62.42 30.306,62.42C30.306,62.42 33.79,59.7 34.17,57.96C34.55,56.21 35.06,53.45 34,52C37.49,49.32 36.18,44.76 36.18,44.76C36.18,44.76 39.28,44.13 41.03,41.3C41.81,40.04 42.25,39.39 43.59,39.98C44.64,40.45 45.72,40.74 46.88,40.74C49.56,40.74 51.92,39.34 53.3,37.22C54.26,37.77 55.37,38.09 56.55,38.09C59.52,38.09 62.03,36.12 62.92,33.39C64.15,34.89 65.99,35.84 68.06,35.84C68.93,35.84 69.75,35.66 70.52,35.35C70.52,35.35 71.33,40.01 77.58,39.71C82.17,39.5 83.63,36.69 83.63,36.69C83.63,36.69 84.81,39.11 86.93,39.85C89.05,40.59 90.72,40.26 90.72,40.26C90.72,40.26 89.59,45.92 95.1,49.06C95.1,49.06 93.6,52.62 94.42,56.24C95.03,59.04 97.669,62.83 97.669,62.83Z" style="fill:rgb(84,57,48);fill-rule:nonzero;"/>
    </g>
</svg>
